X: 203
T:The Ninety-Nine March
C:Randal Bays: The Salmon's Leap
M:4/4
F:http://blackrosetheband.googlepages.com/ABCTUNES.ABC May 2009
L:1/8
R:reel
K:Emin
Bc|B2E2G2A2|B3cB2G2|A3BA2F2|B2E2G2Bc|
B2E2G2A2|B3cB2G2|A2F2d2F2|E4E2:||
|:(3Bcd|e2B2B2de|f2{gf}e2d2B2|d3ed2B2{cB}|A2F2A2Bd|
e2B2B2de|f2{gf}e2d2B2|d2 {Bc}B2 A2F2|E4E2:||

